!!!ONB: YEC year?
!!!COM: Gaspar van Weerbeke
!!!CDT: ~1450-~1517
!!!OTL: Ave domina sancta Maria
!!!AGN: Motet
!!!SCT: Gas0401
!!!SCA: Gas 0401
!!!voices: 4
**kern	**text	**kern	**text	**kern	**text	**kern	**text
*part4	*part4	*part3	*part3	*part2	*part2	*part1	*part1
*staff4	*staff4	*staff3	*staff3	*staff2	*staff2	*staff1	*staff1
*I"Bassus	*	*I"Tenor	*	*I"Altus	*	*I"Superius	*
*I'B	*	*I'T	*	*I'A	*	*I'S	*
*clefF4	*	*clefGv2	*	*clefGv2	*	*clefG2	*
*k[]	*	*k[]	*	*k[]	*	*k[]	*
*M2/2	*	*M2/2	*	*M2/2	*	*M2/2	*
*met(C|)	*	*met(C|)	*	*met(C|)	*	*met(C|)	*
=1	=1	=1	=1	=1	=1	=1	=1
1E	A-	1E	A-	1B	A-	1e	A-
=2	=2	=2	=2	=2	=2	=2	=2
1C	-ve	1G	-ve	1c	-ve	1e	-ve
=3	=3	=3	=3	=3	=3	=3	=3
1C	do-	1G	do-	1c	do-	1e	do-
=4	=4	=4	=4	=4	=4	=4	=4
2C	-mi-	2E	-mi-	2c	-mi-	2e	-mi-
2C	-na	2E	-na	2c	-na	2e	-na
=5	=5	=5	=5	=5	=5	=5	=5
1GG	san-	1D	san-	1B	san-	1g	san-
=6	=6	=6	=6	=6	=6	=6	=6
2C	-cta	2E	-cta	2c	-cta	2g	-cta
2GG	Ma-	2G	Ma-	4B	Ma-	2g	Ma-
.	.	.	.	[4d	-ri-	.	.
=7	=7	=7	=7	=7	=7	=7	=7
1D	-ri-	2.A	-ri-	4d]	.	2.f	-ri-
.	.	.	.	8cL	.	.	.
.	.	.	.	8BJ	.	.	.
.	.	.	.	4A	.	.	.
.	.	8GL	.	4B	.	8eL	.
.	.	8FJ	.	.	.	8dJ	.
!!LO:LB:g=original
=8	=8	=8	=8	=8	=8	=8	=8
*lig	*	*	*	*	*	*	*
2C	-a,	2G	.	2c	-a,	2e	.
2D	.	2F	.	[2A	.	[2d	.
*Xlig	*	*	*	*	*	*	*
=9	=9	=9	=9	=9	=9	=9	=9
1AA	.	1E	.	1A]	.	2d]	.
.	.	.	.	.	.	2c#i	.
=10	=10	=10	=10	=10	=10	=10	=10
2BB	ma-	2D	-a,	2r	.	2d	-a,
*	*	*	*edit	*	*	*	*edit
4.C	.	2G	Ma-	4G	ma-	2e	Ma-
.	.	.	.	4E	.	.	.
8BB	.	.	.	.	.	.	.
=11	=11	=11	=11	=11	=11	=11	=11
4AA	.	4A	.	4C	.	4f	.
2GG	.	2B	-ri	4.D	.	4.g	-ri
.	.	.	.	8E	.	8f	.
[4FF	.	4c	.	[4F	.	[4a	.
=12	=12	=12	=12	=12	=12	=12	=12
4FF]	.	4d	.	4F]	.	8aL]	.
.	.	.	.	.	.	8g	.
4GG	.	4B	.	2D	-ter	8f	.
.	.	.	.	.	.	8eJ	.
2D	-ter	2A	.	.	.	2f#i	.
.	.	.	.	4d	De-	.	.
=13	=13	=13	=13	=13	=13	=13	=13
*	*	*	*	*lig	*	*	*
2.E	De-	1G	a,	2B	.	1g	a,
.	.	.	.	2c	.	.	.
*	*	*	*	*Xlig	*	*	*
8DL	.	.	.	.	.	.	.
8CJ	.	.	.	.	.	.	.
=14	=14	=14	=14	=14	=14	=14	=14
4BB	.	2r	.	4d	.	1r	.
2C	.	.	.	4c	.	.	.
*	*	*	*Xedit	*	*	*	*
.	.	2F	ma-	2d	.	.	.
4BB	.	.	.	.	.	.	.
!!LO:LB:g=original
=15	=15	=15	=15	=15	=15	=15	=15
2C	.	2E	-ter	2e	.	2r	.
*	*	*	*	*	*	*	*Xedit
2E	.	2G	De-	[2c	.	2g	ma-
=16	=16	=16	=16	=16	=16	=16	=16
*	*	*lig	*	*	*	*	*
1D	.	2A	.	2c]	.	2f	-ter
.	.	2F	.	2B	.	2d	De-
*	*	*Xlig	*	*	*	*	*
=17	=17	=17	=17	=17	=17	=17	=17
1C	-i,	2G	-i,	1c	-i,	1e	-i,
.	.	2A	.	.	.	.	.
=18	=18	=18	=18	=18	=18	=18	=18
2GG	re-	2B	re-	2r	.	2d	re-
2C	-gi-	2c	-gi-	[2G	re-	2e	-gi-
=19	=19	=19	=19	=19	=19	=19	=19
4GG	.	4B	.	4G]	.	4d	.
4AA	.	4A	.	4C	-gi-	4c	.
2GG	-na	4.B	-na	[2G	-na	2d	-na
.	.	8A	.	.	.	.	.
=20	=20	=20	=20	=20	=20	=20	=20
4r	.	4.G	.	4G]	.	4B	ce-
4GG	ce-	.	.	8FL	.	4G	.
.	.	8E	.	8EJ	.	.	.
2D	.	2F	.	2D	.	4.A	.
.	.	.	.	.	.	8B	.
=21	=21	=21	=21	=21	=21	=21	=21
*	*	*lig	*	*	*	*	*
*lig	*	*	*	*	*	*	*
1E	.	1G	ce-	2C	.	4.c	.
.	.	.	.	.	.	8d	.
.	.	.	.	2r	.	[2e	.
!!LO:LB:g=original
=22	=22	=22	=22	=22	=22	=22	=22
1F	.	1A	.	2r	.	2e]	.
*Xlig	*	*Xlig	*	*	*	*	*
.	.	.	.	2D	ce-	2d	.
=23	=23	=23	=23	=23	=23	=23	=23
*	*	*lig	*	*	*	*	*
[1E	-li,	2B	.	2.G	.	1e	-li,
.	.	2c	.	.	.	.	.
*	*	*Xlig	*	*	*	*	*
.	.	.	.	4A	.	.	.
=24	=24	=24	=24	=24	=24	=24	=24
1E]	.	1B	-li,	2B	-li,	2r	.
.	.	.	.	2E	.	[2g	por-
=25	=25	=25	=25	=25	=25	=25	=25
2E	por-	2B	por-	2e	por-	2g]	.
2E	-ta	2B	-ta	2e	-ta	2g	-ta
=26	=26	=26	=26	=26	=26	=26	=26
2E	pa-	2B	pa-	2e	pa-	2g	pa-
2E	-ra-	2B	-ra-	2e	-ra-	2g	-ra-
=27	=27	=27	=27	=27	=27	=27	=27
2.F	-di-	4.A	-di-	2c	-di-	2.a	-di-
.	.	8B	.	.	.	.	.
.	.	4c	.	2A	-si,	.	.
8EL	.	4d	.	.	.	8gL	.
8DJ	.	.	.	.	.	8fJ	.
=28	=28	=28	=28	=28	=28	=28	=28
2E	.	2B	.	4r	.	4g	.
*	*	*	*	*	*edit	*	*
.	.	.	.	4G	pa-	8aL	.
.	.	.	.	.	.	8bJ	.
*lig	*	*	*	*	*	*	*
2AA	.	2A	.	4A	.	2cc	.
.	.	.	.	4F	-ra-	.	.
!!LO:PB:g=original
=29	=29	=29	=29	=29	=29	=29	=29
2GG	.	2d	.	2G	-di-	2b	.
*Xlig	*	*	*	*	*	*	*
2AA	.	2c	.	2E	-si,	[2a	.
=30	=30	=30	=30	=30	=30	=30	=30
1E	.	1B	.	2r	.	2a]	.
*	*	*	*	*	*Xedit	*	*
.	.	.	.	2e	do-	2g#i	.
=31	=31	=31	=31	=31	=31	=31	=31
1AA	-si,	1A	-si,	4.c	.	1a	-si,
.	.	.	.	8B	.	.	.
.	.	.	.	4A	.	.	.
.	.	.	.	8GL	.	.	.
.	.	.	.	8FJ	.	.	.
=32	=32	=32	=32	=32	=32	=32	=32
2C	do-	2r	.	4.E	.	1r	.
.	.	.	.	8F	.	.	.
2BB	-mi-	2D	do-	4G	.	.	.
.	.	.	.	[4A	.	.	.
=33	=33	=33	=33	=33	=33	=33	=33
2BB	-na	2D	-mi-	4A]	.	1r	.
.	.	.	.	4G#i	-mi-	.	.
4AA	.	[2E	-na	4.A	-na	.	.
[4C	mun-	.	.	.	.	.	.
.	.	.	.	8Gny	.	.	.
=34	=34	=34	=34	=34	=34	=34	=34
8CL]	.	4E]	.	4E	.	2r	.
8BB	.	.	.	.	.	.	.
8AA	.	2G	mun-	2D	mun-	.	.
8GGJ	.	.	.	.	.	.	.
2AA	.	.	.	.	.	2cc	do-
.	.	4F#i	.	4C	.	.	.
!!LO:LB:g=original
=35	=35	=35	=35	=35	=35	=35	=35
1GG	-di	4.G	-di	2D	.	2b	-mi-
.	.	8F	.	.	.	.	.
.	.	2D	.	4.G	-di,	2b	-na
.	.	.	.	8F	.	.	.
=36	=36	=36	=36	=36	=36	=36	=36
2C	sin-	2r	.	2E	.	4a	.
.	.	.	.	.	.	4.cc	mun-
4.F	-gu-	2c	sin-	4r	.	.	.
.	.	.	.	.	.	8bL	.
*	*	*	*	*	*edit	*	*
.	.	.	.	[4A	mun-	8a	.
8E	.	.	.	.	.	8gJ	.
=37	=37	=37	=37	=37	=37	=37	=37
2D	-la-	2d	-gu-	8A]	.	2f	.
.	.	.	.	8GL	.	.	.
.	.	.	.	8A	.	.	.
.	.	.	.	8BJ	.	.	.
4.C	.	2G	-la-	2c	-di	[2e	-di
8BB	.	.	.	.	.	.	.
=38	=38	=38	=38	=38	=38	=38	=38
2.AA	.	4A	.	4r	.	2e]	.
*	*	*	*	*	*Xedit	*	*
.	.	4.c	.	2A	sin-	.	.
.	.	.	.	.	.	4f	sin-
.	.	8B	.	.	.	.	.
4GG	.	[4d	.	[4D	-gu-	[4g	-gu-
=39	=39	=39	=39	=39	=39	=39	=39
4BB	.	8d]	.	4D]	.	4g]	.
.	.	8c	.	.	.	.	.
4C	.	2c	.	8EL	.	8fL	.
.	.	.	.	8FJ	.	8eJ	.
2GG	-ris,	.	.	2G	-la-	2d	-la-
.	.	4B	.	.	.	.	.
=40	=40	=40	=40	=40	=40	=40	=40
4AA	pu-	4.c	-ris,	4C	-ris,	2c	-ris,
4C	.	.	.	4E	.	.	.
.	.	8B	.	.	.	.	.
4D	.	4A	.	4F	.	2r	.
[4E	.	[4G	.	4G	.	.	.
!!LO:LB:g=original
=41	=41	=41	=41	=41	=41	=41	=41
8E]	.	4G]	.	4B	.	1r	.
8D	.	.	.	.	.	.	.
2C	.	8FL	.	4c	.	.	.
.	.	8EJ	.	.	.	.	.
.	.	2D	.	2d	.	.	.
4BB	.	.	.	.	.	.	.
=42	=42	=42	=42	=42	=42	=42	=42
*lig	*	*	*	*	*	*	*
2C	-ra	2C	.	4G	pu-	2e	pu-
.	.	.	.	2c	.	.	.
2D	.	2r	.	.	.	2d	-ra
*Xlig	*	*	*	*	*	*	*
.	.	.	.	4B	-ra	.	.
=43	=43	=43	=43	=43	=43	=43	=43
4C	tu-	1r	.	4.c	tu	2e	tu
4E	.	.	.	.	.	.	.
.	.	.	.	8B	.	.	.
4D	-es	.	.	4A	es	4f	es
4E	.	.	.	[4G	vir-	[4g	vir-
=44	=44	=44	=44	=44	=44	=44	=44
2C	vir-	2E	pu-	4G]	.	4g]	.
.	.	.	.	4c	.	8fL	.
.	.	.	.	.	.	8eJ	.
2D	.	2D	-ra	4.A	.	2f	.
.	.	.	.	8B	.	.	.
=45	=45	=45	=45	=45	=45	=45	=45
4C	-go,	2E	tu	2c	-go,	2e	-go,
4E	.	.	.	.	.	.	.
4D	tu	4F	es	4d	tu	2r	.
4E	.	[4G	vir-	4B	.	.	.
=46	=46	=46	=46	=46	=46	=46	=46
2C	con-	4G]	.	2e	con-	2r	.
.	.	8FL	.	.	.	.	.
.	.	8EJ	.	.	.	.	.
2D	-ce-	2F	.	4d	-ce-	2a	tu
.	.	.	.	4f	.	.	.
!!LO:LB:g=original
=47	=47	=47	=47	=47	=47	=47	=47
4E	-pi-	2E	-go,	4e	-pi-	2g	con-
2G	.	.	.	4d	.	.	.
.	.	2r	.	4.f	.	2a	-ce-
4F	.	.	.	.	.	.	.
.	.	.	.	8e	.	.	.
=48	=48	=48	=48	=48	=48	=48	=48
4G	.	2r	.	4d	.	4b	-pi-
4A	.	.	.	4c	-sti	2cc	.
2F	.	2A	tu	2r	.	.	.
.	.	.	.	.	.	8bL	.
.	.	.	.	.	.	8aJ	.
=49	=49	=49	=49	=49	=49	=49	=49
2G	-sti	2G	con-	2d	Je-	2b	.
4r	.	4A	-ce-	4c	.	2a	.
4F	Je-	4c	.	4A	.	.	.
=50	=50	=50	=50	=50	=50	=50	=50
8GL	.	4B	-pi-	2B	.	1g	-sti
8F	.	.	.	.	.	.	.
8E	.	2d	.	.	.	.	.
8DJ	.	.	.	.	.	.	.
2E	.	.	.	2G	.	.	.
.	.	4c#i	.	.	.	.	.
=51	=51	=51	=51	=51	=51	=51	=51
*	*	*	*	*	*	*lig	*
1D	-sum	2.d	-sti	2A	.	2f	Je-
.	.	.	.	2F	.	[2a	.
.	.	4A	.	.	.	.	.
=52	=52	=52	=52	=52	=52	=52	=52
2r	.	1B	Je-	1E	-sum	4a]	.
*	*	*	*	*	*	*Xlig	*
.	.	.	.	.	.	4g#i	.
2E	si-	.	.	.	.	4g#i	.
.	.	.	.	.	.	4f#i	.
=53	=53	=53	=53	=53	=53	=53	=53
8FL	.	1A	-sum	4r	.	1a	-sum
8E	.	.	.	.	.	.	.
8D	.	.	.	2F	si-	.	.
8CJ	.	.	.	.	.	.	.
4D	.	.	.	.	.	.	.
8CL	.	.	.	8EL	.	.	.
8BBJ	.	.	.	8DJ	.	.	.
!!LO:PB:g=original
=54	=54	=54	=54	=54	=54	=54	=54
2AA	-ne	1r	.	4E	-ne	2cc	si-
.	.	.	.	4F	pec-	.	.
4GG	pec-	.	.	2G	-ca-	4b	-ne
4G	-ca-	.	.	.	.	4b	pec-
=55	=55	=55	=55	=55	=55	=55	=55
4F	.	2c	si-	4A	.	2cc	-ca-
4E	.	.	.	4G	.	.	.
2D	.	4B	-ne	2F	.	2dd	.
.	.	4B	pec-	.	.	.	.
=56	=56	=56	=56	=56	=56	=56	=56
*	*	*lig	*	*	*	*	*
4.C	.	1c	-ca-	4E	.	4.ee	.
.	.	.	.	2G	.	.	.
8D	.	.	.	.	.	8dd	.
4E	.	.	.	.	.	8ccL	.
.	.	.	.	.	.	8bJ	.
[4F	.	.	.	8FL	.	[4a	.
.	.	.	.	8EJ	.	.	.
=57	=57	=57	=57	=57	=57	=57	=57
4F]	.	1d	.	4D	.	4a]	.
*	*	*Xlig	*	*	*	*	*
8EL	.	.	.	4A	.	4.dd	.
8DJ	.	.	.	.	.	.	.
2G	.	.	.	2B	.	.	.
.	.	.	.	.	.	8ccL	.
.	.	.	.	.	.	8b	.
.	.	.	.	.	.	8aJ	.
=58	=58	=58	=58	=58	=58	=58	=58
0E;	-to.	0e;	-to.	0B;	-to.	0g;	-to.
=59||	=59||	=59||	=59||	=59||	=59||	=59||	=59||
1C	Tu	2.E	Tu	1r	.	1r	.
.	.	4F	.	.	.	.	.
=60	=60	=60	=60	=60	=60	=60	=60
2C	pe-	4.G	pe-	1r	.	1r	.
.	.	8A	.	.	.	.	.
4BB	-pe-	4B	-pe-	.	.	.	.
4AA	.	[4c	-ri-	.	.	.	.
!!LO:LB:g=original
=61	=61	=61	=61	=61	=61	=61	=61
4C	-ri-	8c]	.	1r	.	1r	.
.	.	8B	.	.	.	.	.
4D	.	2A	.	.	.	.	.
2BB	.	.	.	.	.	.	.
.	.	4G#i	.	.	.	.	.
=62	=62	=62	=62	=62	=62	=62	=62
1AA	-sti	1A	-sti,	1r	.	2.e	Tu
.	.	.	.	.	.	4f	.
=63	=63	=63	=63	=63	=63	=63	=63
*	*	*	*edit	*	*	*	*
1r	.	2e	tu	1r	.	4.g	pe-
.	.	.	.	.	.	8a	.
.	.	4d	pe-	.	.	4b	-pe-
.	.	4c	.	.	.	[4cc	-ri-
=64	=64	=64	=64	=64	=64	=64	=64
1r	.	2A	-pe-	1r	.	8cc]	.
.	.	.	.	.	.	8b	.
.	.	.	.	.	.	2a	.
.	.	2B	-ri-	.	.	.	.
.	.	.	.	.	.	4g#i	.
=65	=65	=65	=65	=65	=65	=65	=65
1F	cre-	1A	-sti	2.c	Cre-	1a	-sti
.	.	.	.	4d	.	.	.
=66	=66	=66	=66	=66	=66	=66	=66
*	*	*	*Xedit	*	*	*	*
2E	-a-	2B	cre-	2e	-a-	2g	cre-
4.D	-to-	2d	-a-	4.A	-to-	4f	-a-
.	.	.	.	.	.	[4a	-to-
8C	.	.	.	8B	.	.	.
=67	=67	=67	=67	=67	=67	=67	=67
1AA	-rem	1c	-to-	2c	.	4a]	.
.	.	.	.	.	.	8gL	.
.	.	.	.	.	.	8fJ	.
.	.	.	.	2C	-rem	2e	.
!!LO:LB:g=original
=68	=68	=68	=68	=68	=68	=68	=68
2r	.	1B	-rem	2.G	et	2d	-rem
[2GG	et	.	.	.	.	4r	.
.	.	.	.	8FL	.	[4d	et
.	.	.	.	8EJ	.	.	.
=69	=69	=69	=69	=69	=69	=69	=69
2GG]	.	1B	et	4D	.	4d]	.
.	.	.	.	2G	sal-	4e	sal-
2GG	sal-	.	.	.	.	4d	.
.	.	.	.	8FL	.	[4g	-va-
.	.	.	.	8EJ	.	.	.
=70	=70	=70	=70	=70	=70	=70	=70
2GG	-va-	2B	sal-	2D	-va-	4g]	.
.	.	.	.	.	.	8fL	.
.	.	.	.	.	.	8eJ	.
2GG	-to-	2B	-va-	2G	-to-	2d	-to-
=71	=71	=71	=71	=71	=71	=71	=71
*lig	*	*	*	*	*	*	*
2AA	-rem	2c	-to-	2C	-rem	2c	-rem
2C	.	2c	-rem	4r	.	2e	mun-
*Xlig	*	*	*	*	*	*	*
.	.	.	.	[4G	mun-	.	.
=72	=72	=72	=72	=72	=72	=72	=72
2BB	mun-	2d	mun-	4G]	.	2d	.
.	.	.	.	2B	.	.	.
2GG	.	2B	.	.	.	[2g	.
.	.	.	.	[4d	.	.	.
=73	=73	=73	=73	=73	=73	=73	=73
1D	.	1A	.	4d]	.	2g]	.
.	.	.	.	8cL	.	.	.
.	.	.	.	8BJ	.	.	.
.	.	.	.	4A	.	2f#i	.
.	.	.	.	4d	.	.	.
=74	=74	=74	=74	=74	=74	=74	=74
2.E	-di,	1G	-di,	2B	-di,	1g	-di,
.	.	.	.	2G	in	.	.
4D	.	.	.	.	.	.	.
!!LO:LB:g=original
=75	=75	=75	=75	=75	=75	=75	=75
4C	in	2r	.	2c	quo	2r	.
8BBL	.	.	.	.	.	.	.
8AAJ	.	.	.	.	.	.	.
[2GG	quo	2B	in	[2d	non	2g	in
=76	=76	=76	=76	=76	=76	=76	=76
2GG]	.	2B	quo	4d]	.	2g	quo
.	.	.	.	4c	.	.	.
2GG	non	2B	non	2B	.	2g	non
=77	=77	=77	=77	=77	=77	=77	=77
2.FF	du-	2.c	du-	2.A	du-	2.a	du-
4GG	.	4B	.	4B	.	4g	.
=78	=78	=78	=78	=78	=78	=78	=78
4AA	.	2A	.	1c	-bi-	4f	.
4BB	.	.	.	.	.	4e	.
2C	.	2G	.	.	.	[2e	.
=79	=79	=79	=79	=79	=79	=79	=79
1D	-bi-	1F	-bi-	1A	-to,	2e]	.
.	.	.	.	.	.	2d	-bi-
=80	=80	=80	=80	=80	=80	=80	=80
2.AA	-to,	1E	-to,	2r	.	1e	-to,
.	.	.	.	2A	li-	.	.
4BB	.	.	.	.	.	.	.
=81	=81	=81	=81	=81	=81	=81	=81
4C	.	2r	.	2G	-be-	2r	.
4D	.	.	.	.	.	.	.
4E	.	2E	li-	2c	-ra	2g	li-
4F	.	.	.	.	.	.	.
!!LO:PB:g=original
=82	=82	=82	=82	=82	=82	=82	=82
1G	.	2E	-be-	2B	.	2g	-be-
.	.	2E	-ra	2c	.	2g	-ra
=83	=83	=83	=83	=83	=83	=83	=83
2A	li-	1D	.	2d	.	2.f	.
2D	-be-	.	.	4r	.	.	.
.	.	.	.	4B	.	8eL	.
.	.	.	.	.	.	8dJ	.
=84	=84	=84	=84	=84	=84	=84	=84
2C	-ra	2G	.	2c	.	2e	.
2D	.	2F	.	[2A	.	[2d	.
=85	=85	=85	=85	=85	=85	=85	=85
1AA	me	1E	.	1A]	.	2d]	.
.	.	.	.	.	.	2c#i	.
=86	=86	=86	=86	=86	=86	=86	=86
1r	.	1D	me	1F	me	1d	me
=87	=87	=87	=87	=87	=87	=87	=87
2GG	ab	2.D	ab	1r	.	1r	.
4BB	o-	.	.	.	.	.	.
4C	.	[4E	o-	.	.	.	.
=88	=88	=88	=88	=88	=88	=88	=88
2AA	-mni-	4E]	.	1r	.	2r	.
.	.	4F	-mni-	.	.	.	.
2GG	-bus	2G	-bus	.	.	[2d	ab
!!LO:LB:g=original
=89	=89	=89	=89	=89	=89	=89	=89
4D	ma-	4F	ma-	1r	.	4d]	.
4.C	.	4G	.	.	.	2e	o-
.	.	2A	.	.	.	.	.
8AA	.	.	.	.	.	.	.
4D	.	.	.	.	.	4f	-mni-
=90	=90	=90	=90	=90	=90	=90	=90
4BB	.	4G	.	2.d	ab	2g	-bus
4GG	.	4B	.	.	.	.	.
4D	.	4A	.	.	.	4f	ma-
4E	.	[4G	.	4c	.	4g	.
=91	=91	=91	=91	=91	=91	=91	=91
2D	-lis,	4G]	.	2d	o-	2a	.
.	.	4F	.	.	.	.	.
4r	.	4G	.	4B	-mni-	4g	.
*	*edit	*	*	*	*	*	*
4G	ma-	[4d	.	4G	-bus	4b	.
=92	=92	=92	=92	=92	=92	=92	=92
4F	.	4d]	.	4A	ma-	4a	.
4G	.	4B	.	8BL	.	2g	.
.	.	.	.	8cJ	.	.	.
2D	-lis,	2A	.	2d	.	.	.
.	.	.	.	.	.	4f#i	.
=93	=93	=93	=93	=93	=93	=93	=93
2r	.	2G	-lis,	2B	-lis,	1g	-lis,
*	*Xedit	*	*	*	*	*	*
2E	et	2B	et	2G	et	.	.
=94	=94	=94	=94	=94	=94	=94	=94
1C	o-	1c	o-	4.E	o-	2r	.
.	.	.	.	8F	.	.	.
.	.	.	.	2G	-ra	2e	et
=95	=95	=95	=95	=95	=95	=95	=95
1D	-ra	1A	-ra	2r	.	1f	o-
.	.	.	.	2d	pro	.	.
!!LO:LB:g=original
=96	=96	=96	=96	=96	=96	=96	=96
1AA	pro	2r	.	2.c	pec-	1e	-ra
.	.	[2E	pro	.	.	.	.
.	.	.	.	8BL	.	.	.
.	.	.	.	8AJ	.	.	.
=97	=97	=97	=97	=97	=97	=97	=97
2GG	pec-	2E]	.	2B	.	2g	pro
2AA	.	2E	pec-	[2A	-ca-	2c	pec-
=98	=98	=98	=98	=98	=98	=98	=98
1BB	-ca-	1D	-ca-	2A]	.	1d	-ca-
.	.	.	.	2G#i	.	.	.
=99	=99	=99	=99	=99	=99	=99	=99
1AA	-tis	1E	-tis	1A	-tis	1c	-tis
=100	=100	=100	=100	=100	=100	=100	=100
2C	me-	2r	.	2G	me-	2e	me-
*lig	*	*	*	*	*	*	*
2GG	.	2G	me-	2B	.	4.d	.
.	.	.	.	.	.	8e	.
=101	=101	=101	=101	=101	=101	=101	=101
2D	.	4.F	.	4.A	.	2f	.
*Xlig	*	*	*	*	*	*	*
.	.	8G	.	8B	.	.	.
2AA	.	2A	.	2c	.	4.e	.
.	.	.	.	.	.	8f	.
=102	=102	=102	=102	=102	=102	=102	=102
2E	.	2G	.	4.B	.	2g	.
.	.	.	.	8c	.	.	.
4D	.	4.A	.	2d	.	4f	.
[4F	.	.	.	.	.	[4a	.
.	.	8B	.	.	.	.	.
!!LO:LB:g=original
=103	=103	=103	=103	=103	=103	=103	=103
4F]	.	4.c	.	4A	.	4a]	.
4C	.	.	.	4c	.	8gL	.
.	.	8B	.	.	.	8fJ	.
4E	.	4G	.	4B	.	4e	.
4D	.	[4A	.	[4d	.	[4f	.
=104	=104	=104	=104	=104	=104	=104	=104
4F	.	4A]	.	4d]	.	8f]	.
.	.	.	.	.	.	8e	.
2.C	.	8GL	.	2.c	.	4.g	.
.	.	8FJ	.	.	.	.	.
.	.	2E	.	.	.	.	.
.	.	.	.	.	.	8f	.
.	.	.	.	.	.	[4e	.
=105	=105	=105	=105	=105	=105	=105	=105
1D	.	1F	.	1A	.	4e]	.
.	.	.	.	.	.	8dL	.
.	.	.	.	.	.	8cJ	.
.	.	.	.	.	.	2d	.
=106	=106	=106	=106	=106	=106	=106	=106
2AA	-is.	[1El	-is.	2A	-is.	[1el	-is.
4GG	.	.	.	4B	.	.	.
[4AA	.	.	.	4c	.	.	.
=107	=107	=107	=107	=107	=107	=107	=107
4AA]	.	1E_	.	4B	.	1e_	.
8GGL	.	.	.	2c	.	.	.
8FFJ	.	.	.	.	.	.	.
4GG	.	.	.	.	.	.	.
4AA	.	.	.	8BL	.	.	.
.	.	.	.	8AJ	.	.	.
=108	=108	=108	=108	=108	=108	=108	=108
*	*	*	*	*lig	*	*	*
[1El	.	1E_	.	2B	.	1e_	.
.	.	.	.	2c	.	.	.
*	*	*	*	*Xlig	*	*	*
=109	=109	=109	=109	=109	=109	=109	=109
1E]	.	1E]	.	1Bl	.	1e]	.
==	==	==	==	==	==	==	==
*-	*-	*-	*-	*-	*-	*-	*-
!!!system-decoration: [*]
!!!RDF**kern: j = editorial accidental, optional, paren up
!!!RDF**kern: i = editorial accidental
!!!RDF**kern: l = terminal long
!!!PTL: Gaspar van Weerbeke: Collected Works. IV. Motets
!!!PPR: American Institute of Musicology
!!!PC#: Corpus Mensurabilis Musicae 106/IV
!!!PDT: 2010
!!!PED: Pavanello, Agnese
!!!YEC: Copyright 2010, Pavanello, Agnese
!!!YEM: CC-BY-SA 4.0 (https://creativecommons.org/licenses/by-nc/4.0/legalcode)
!!!EED: Mair-Gruber, Roland
!!!EEV: 2021/08/09
